packages/kaspersky-hexa-ui-icons/src/iconsSVGs/64x42/FlagCeu.svg

<svg xmlns="http://www.w3.org/2000/svg" width="64" height="42" fill="none" viewBox="0 0 64 42"><g clip-path="url(#a)"><rect width="64" height="42" fill="#fff" rx="5"/><path fill="#19bfbf" d="M0 0h64v42H0z"/><path fill="#fff" fill-rule="evenodd" d="m38.5049 37.3051-2.1882-2.1882a.7.7 0 0 1-.1691-.2736l-1.1883-3.5649a.6995.6995 0 0 0-.6636-.4783c-.455 0-.7889.4276-.6786.8691l1.0866 4.3464a.7.7 0 0 1-.1841.6647l-.6248.6248a.7.7 0 0 1-.9899 0l-.7-.7a.7.7 0 0 1-.205-.495v-2.3448a.7.7 0 0 0-.0739-.313l-1.1327-2.2653a.7.7 0 0 0-.6261-.3869h-3.6021a.7.7 0 0 0-.313.0739l-2.3929 1.1964a.7.7 0 0 0-.351.4048l-1.2167 3.6498a.7.7 0 0 1-.351.4048l-2.2276 1.1138a.7.7 0 0 1-.6261 0l-2.1-1.05a.7.7 0 0 1-.3869-.6261v-4.4674a.7.7 0 0 1 .7-.7h2.8a.7.7 0 0 0 .7-.7v-1.9864c0-.0752.0121-.15.0359-.2214l1.2045-3.6136a.7.7 0 0 1 .6641-.4786h2.1302a.7.7 0 0 0 .3131-.0739l2.5044-1.2522a.7.7 0 0 1 .313-.0739h1.9348a.7.7 0 0 0 .7-.7V21.29a.7.7 0 0 1 .205-.4949l.5082-.5083c.3379-.3378.9074-.2454 1.1211.182l.7722 1.5443a.7.7 0 0 0 .6261.387h3.2628a.7.7 0 0 0 .6641-.4786l1.0809-3.2428a.7.7 0 0 1 .6641-.4786h1.5955a.7.7 0 1 0 0-1.4h-1.4a.7.7 0 0 1-.7-.7v-1.9348a.7.7 0 0 1 .0739-.313l1.1004-2.2009a.7.7 0 0 0-.1311-.8081l-.5483-.5482a.7.7 0 0 0-.9899 0l-2.1 2.1a.7.7 0 0 0-.205.4949v2.3965c0 .0752-.0122.15-.036.2214l-1.2045 3.6136a.7.7 0 0 1-.6641.4786h-.6055a.7.7 0 0 1-.495-.205l-.9932-.9932a.69.69 0 0 1-.2017-.4872c0-.5121-.539-.8451-.997-.6161l-1.3518.6759a.7.7 0 0 1-.808-.1312l-.8382-.8382a.7.7 0 0 1-.205-.495V14.29a.7.7 0 0 1 .205-.4949l2.595-2.595 4.0831-4.0832a.7.7 0 0 1 .2736-.169l3.9355-1.3119a.7.7 0 0 1 .2214-.0359h2.2537a.7.7 0 0 1 .6261.387l1.1327 2.2652a.7.7 0 0 1 .0739.313v3.7448c0 .1857.0737.3637.205.495l.889.8891a.7.7 0 0 1 .1691.7163l-1.0941 3.2824a.7.7 0 0 0 .2758.8038l3.7552 2.5034 2.0907 1.0454c.3766.1883.503.664.2694 1.0144l-2.2426 3.3638a.7.7 0 0 0-.1175.3883v3.4836a.7.7 0 0 1-.4787.664l-3.4463 1.1488a.7.7 0 0 0-.4047.351l-1.2195 2.4391a.7.7 0 0 1-.1312.1819l-2.2247 2.2247a.7.7 0 0 1-.9899 0M27.7999 35c0 .7732-.6268 1.4-1.4 1.4s-1.4-.6268-1.4-1.4.6268-1.4 1.4-1.4 1.4.6268 1.4 1.4M20.8 19.6c.7732 0 1.4-.6268 1.4-1.4s-.6268-1.4-1.4-1.4-1.4.6268-1.4 1.4.6268 1.4 1.4 1.4" clip-rule="evenodd"/><path fill="#fff" fill-rule="evenodd" d="M23.5262 18.348a.7.7 0 0 0 .0739-.313v-1.0695a.7.7 0 0 0-.0739-.3131l-.8196-1.6391c-.2327-.4654.1057-1.0131.6261-1.0131h.9674a.7.7 0 0 1 .7.7v3.3348c0 .1087.0253.2158.0739.313l.8195 1.6392c.2328.4654-.1057 1.013-.6261 1.013h-1.9347c-.5204 0-.8588-.5476-.6261-1.013z" clip-rule="evenodd"/></g><defs><clipPath id="a"><rect width="64" height="42" fill="#fff" rx="5"/></clipPath></defs></svg>

<svg width="64" height="42" viewBox="0 0 64 42" fill="none" xmlns="http://www.w3.org/2000/svg">
<g clip-path="url(#clip0_37941_2389)">
<rect width="64" height="42" rx="5" fill="white"/>
<rect width="64" height="42" fill="#19BFBF"/>
<path fill-rule="evenodd" clip-rule="evenodd" d="M38.5049 37.3051L36.3167 35.1169C36.2399 35.0401 36.182 34.9464 36.1476 34.8433L34.9593 31.2784C34.8641 30.9928 34.5968 30.8001 34.2957 30.8001C33.8407 30.8001 33.5068 31.2277 33.6171 31.6692L34.7037 36.0156C34.7634 36.2541 34.6935 36.5065 34.5196 36.6803L33.8948 37.3051C33.6215 37.5785 33.1782 37.5785 32.9049 37.3051L32.2049 36.6051C32.0736 36.4738 31.9999 36.2958 31.9999 36.1101V33.7653C31.9999 33.6567 31.9746 33.5495 31.926 33.4523L30.7933 31.187C30.6748 30.9499 30.4324 30.8001 30.1672 30.8001H26.5651C26.4564 30.8001 26.3493 30.8254 26.2521 30.874L23.8592 32.0704C23.6931 32.1535 23.5669 32.299 23.5082 32.4752L22.2915 36.125C22.2328 36.3012 22.1066 36.4467 21.9405 36.5298L19.7129 37.6436C19.5158 37.7421 19.2839 37.7421 19.0868 37.6436L16.9868 36.5936C16.7497 36.475 16.5999 36.2326 16.5999 35.9675V31.5001C16.5999 31.1135 16.9133 30.8001 17.2999 30.8001H20.0999C20.4865 30.8001 20.7999 30.4867 20.7999 30.1001V28.1137C20.7999 28.0385 20.812 27.9637 20.8358 27.8923L22.0403 24.2787C22.1356 23.9929 22.4031 23.8001 22.7044 23.8001H24.8346C24.9433 23.8001 25.0505 23.7748 25.1477 23.7262L27.6521 22.474C27.7493 22.4254 27.8564 22.4001 27.9651 22.4001H29.8999C30.2865 22.4001 30.5999 22.0867 30.5999 21.7001V21.29C30.5999 21.1044 30.6736 20.9263 30.8049 20.7951L31.3131 20.2868C31.651 19.949 32.2205 20.0414 32.4342 20.4688L33.2064 22.0131C33.325 22.2503 33.5673 22.4001 33.8325 22.4001H37.0953C37.3966 22.4001 37.6641 22.2073 37.7594 21.9215L38.8403 18.6787C38.9356 18.3929 39.2031 18.2001 39.5044 18.2001H41.0999C41.4865 18.2001 41.7999 17.8867 41.7999 17.5001C41.7999 17.1135 41.4865 16.8001 41.0999 16.8001H39.6999C39.3133 16.8001 38.9999 16.4867 38.9999 16.1001V14.1653C38.9999 14.0567 39.0252 13.9495 39.0738 13.8523L40.1742 11.6514C40.309 11.3819 40.2561 11.0564 40.0431 10.8433L39.4948 10.2951C39.2215 10.0217 38.7782 10.0217 38.5049 10.2951L36.4049 12.3951C36.2736 12.5263 36.1999 12.7044 36.1999 12.89V15.2865C36.1999 15.3617 36.1877 15.4365 36.1639 15.5079L34.9594 19.1215C34.8641 19.4073 34.5966 19.6001 34.2953 19.6001H33.6898C33.5042 19.6001 33.3261 19.5263 33.1948 19.3951L32.2016 18.4019C32.0724 18.2727 31.9999 18.0975 31.9999 17.9147C31.9999 17.4026 31.4609 17.0696 31.0029 17.2986L29.6511 17.9745C29.3816 18.1092 29.0561 18.0564 28.8431 17.8433L28.0049 17.0051C27.8736 16.8738 27.7999 16.6958 27.7999 16.5101V14.29C27.7999 14.1044 27.8736 13.9263 28.0049 13.7951L30.5999 11.2001L34.683 7.11695C34.7598 7.0401 34.8535 6.98221 34.9566 6.94784L38.8921 5.63602C38.9635 5.61223 39.0382 5.6001 39.1135 5.6001H41.3672C41.6324 5.6001 41.8748 5.7499 41.9933 5.98705L43.126 8.2523C43.1746 8.34949 43.1999 8.45667 43.1999 8.56535V12.3101C43.1999 12.4958 43.2736 12.6738 43.4049 12.8051L44.2939 13.6942C44.4814 13.8817 44.5469 14.159 44.463 14.4105L43.3689 17.6929C43.2691 17.9923 43.3821 18.3216 43.6447 18.4967L47.3999 21.0001L49.4906 22.0455C49.8672 22.2338 49.9936 22.7095 49.76 23.0599L47.5174 26.4237C47.4408 26.5387 47.3999 26.6738 47.3999 26.812V30.2956C47.3999 30.5969 47.2071 30.8644 46.9212 30.9596L43.4749 32.1084C43.2988 32.1671 43.1532 32.2934 43.0702 32.4594L41.8507 34.8985C41.817 34.9658 41.7727 35.0272 41.7195 35.0804L39.4948 37.3051C39.2215 37.5785 38.7782 37.5785 38.5049 37.3051ZM27.7999 35C27.7999 35.7732 27.1731 36.4 26.3999 36.4C25.6267 36.4 24.9999 35.7732 24.9999 35C24.9999 34.2268 25.6267 33.6 26.3999 33.6C27.1731 33.6 27.7999 34.2268 27.7999 35ZM20.8 19.6C21.5732 19.6 22.2 18.9732 22.2 18.2C22.2 17.4268 21.5732 16.8 20.8 16.8C20.0268 16.8 19.4 17.4268 19.4 18.2C19.4 18.9732 20.0268 19.6 20.8 19.6Z" fill="white"/>
<path fill-rule="evenodd" clip-rule="evenodd" d="M23.5262 18.348C23.5748 18.2508 23.6001 18.1437 23.6001 18.035V16.9655C23.6001 16.8568 23.5748 16.7496 23.5262 16.6524L22.7066 15.0133C22.4739 14.5479 22.8123 14.0002 23.3327 14.0002H24.3001C24.6867 14.0002 25.0001 14.3136 25.0001 14.7002V18.035C25.0001 18.1437 25.0254 18.2508 25.074 18.348L25.8935 19.9872C26.1263 20.4526 25.7878 21.0002 25.2674 21.0002H23.3327C22.8123 21.0002 22.4739 20.4526 22.7066 19.9872L23.5262 18.348Z" fill="white"/>
</g>
<defs>
<clipPath id="clip0_37941_2389">
<rect width="64" height="42" rx="5" fill="white"/>
</clipPath>
</defs>
</svg>
